X: 25
T:Seanamhac Tube Station
M:6/8
L:1/8
Q:180
C:John Carty
D:At the Racket
K:DMinor
|: GFD DFD | GAc d2 e | dcA cAF | GFD CDF | 
GFD DFD GAc d2 e | dcA cAF | G3 G2 A :||
| ded dcA | cdc cAc | dcA cAF | GFD C2 A |
ded dcA | cdc cAc | dcA cAF | GAG G3|
ded dcA | cdc cAc | dcA cAF | GFD CDF |
GFD DFD | GAc d2 e | dcA cAF | G3 G2 A ||
